X:1
T:Blessèd Hope
T:Blessèd Hope
T:James McGranahan
T:Daniel Webster Whittle, 1877
T:Public Domain Courtesy of the Cyber Hymnal™
C:James McGranahan
Z:Public Domain
Z:Courtesy of the Cyber Hymnal™
%%score ( 1 2 ) ( 3 4 )
L:1/8
Q:1/4=88
M:6/8
K:D
V:1 treble 
V:2 treble 
V:3 bass 
V:4 bass 
V:1
 D[CE] | [DF][DF][DF] [EG][DF][EG] | [FA]3 [DF][EG][FA] | [GB][GB][GB] [FA][EG][DF] | %4
w: 1.~Bless- èd|hope that in Je- sus is|giv- en, In our|sor- row to cheer and sus-|
w: 2.~Bless- èd|hope in the word God has|spo- ken, All our|peace by that word we ob-|
w: 3.~Bless- èd|hope! how it shines in our|sor- row, Like the|star o- ver Beth- le- hem’s|
w: 4.~Bless- èd|hope! the bright star of the|morn- ing, That shall|her- ald His com- ing to|
 [CE]4 (D[CE]) | [DF][DF][DF] [EG][DF][EG] | [FA]3 [DF][FA][Fd] | [Ec]>[Ec][Ec] [Fd][Ec][DB] | %8
w: tain, That *|soon in the man- sions of|Heav- en, We shall|meet with our loved ones a-|
w: tain; And~as *|sure as God’s word was ne’er|bro- ken, We shall|meet with our loved ones a-|
w: plain, That~it *|may be, with Him, ere the|mor- row, We shall|meet with our loved ones a-|
w: reign; Oh,~the *|glo- ry that waits its fair|dawn- ing, When we|meet with our loved ones a-|
 [CA]4 ||"^Refrain" [FA][Fd] | [Ec]3- [Ec]2 [Ec]/[Ge]/ | [Fd]3- [Fd]2 [CE]/[DF]/ | %12
w: gain.||||
w: gain.|Bless- èd|hope, * bless- èd|hope, * We shall|
w: gain.||||
w: gain.||||
 [EG][EG][EG] [EG][GB][FA] | [DF]4 [FA][Fd] | [Ec]3- [Ec]2 [Ec]/[Ge]/ | [Fd]3- [Fd]2 [FA]/[Fd]/ | %16
w: ||||
w: meet with our loved ones a-|gain; Bless- èd|hope, * bless- èd|hope, * We shall|
w: ||||
w: ||||
 [Ac]>[GB][FA] [EG][DF][CE] | D4 |] %18
w: ||
w: meet with our loved ones a-|gain.|
w: ||
w: ||
V:2
 D x | x6 | x6 | x6 | x4 D x | x6 | x6 | x6 | x4 || x2 | x6 | x6 | x6 | x6 | x6 | x6 | x6 | D4 |] %18
V:3
 z2 | D,3 [A,,A,]3 | D,3 D,3 | [A,,D,G,]3 D,3 | [A,,A,]3- [A,,A,]2 z | D,3 [A,,A,]3 | D,3 D,3 | %7
 [E,A,]3 [E,^G,]3 | [A,,E,A,]4 || z2 | z2 [A,,A,]/[A,,A,]/ [A,,A,]2 z | %11
 z2 [D,A,]/[D,A,]/ [D,A,]2 [E,A,]/D,/ | [A,,C,][A,,C,][A,,C,] [A,,C,][A,,E,][A,,A,] | [D,A,]4 z2 | %14
 z2 [A,,A,]/[A,,A,]/ [A,,A,]2 z | z2 [D,A,]/[D,A,]/ [D,A,]2 [D,A,]/[D,A,]/ | %16
 [A,,A,]>[A,,A,][A,,D] [A,,B,][A,,A,][A,,G,] | [D,F,]4 |] %18
V:4
 x2 | x6 | x6 | x6 | x6 | x6 | x6 | x6 | x4 || x2 | x6 | x11/2 D,/ | x6 | x6 | x6 | x6 | x6 | x4 |] %18

